X: 5
T: Flowing Bowl, The
Z: jond
S: https://thesession.org/tunes/395#setting53139
R: reel
M: 4/4
L: 1/8
K: Dmaj
ef | gfed cAAB|cAdB cAAf|gfed cAAe|fage d2 ef |
gfed cAAB|cAdB cAAf|gfed cAAe|fage d2 (3ABc ||
d2 fd Adfd|d2 fa gece|d2 fd Adfd|g2 fg egfe|
d2 fd Adfd|d2 fa gece|~f3d ~g3e|fage d2||

%-------------------- TUNE SEPARATOR --------------------%

